ui/StatusQ/src/assets/img/icons/disconnect.svg

<svg fill="none" height="24" viewBox="0 0 24 24" width="24" xmlns="http://www.w3.org/2000/svg"><path clip-rule="evenodd" d="m2.23291 3.29594c.25989-.33414.74145-.39434 1.07559-.13445l5.0638 3.93852c.20342.15821.49282.14019.67504-.04203l1.22976-1.22978c1.5129-1.51283 3.8175-1.75134 5.5799-.71552.2164.12719.4952.10779.6727-.0697l1.083-1.08297c.2993-.29933.7846-.29933 1.0839 0 .2994.29933.2994.78464 0 1.08397l-1.0955 1.09554c-.1755.17547-.1966.45028-.0738.66589 1 1.75543.7513 4.02899-.7464 5.52659l-.3264.3265c-.2174.2173-.195.576.0476.7647l5.202 4.0459c.3341.2599.3943.7415.1344 1.0756-.2599.3342-.7414.3944-1.0756.1345l-18.39555-14.30766c-.33414-.25989-.39434-.74145-.13444-1.0756zm8.17179 5.38485c-.2426-.1887-.2649-.54733-.0476-.76467l1.004-1.00395c1.1973-1.19732 3.1385-1.19732 4.3359 0 1.1973 1.19732 1.1973 3.13853 0 4.33583l-.5523.5523c-.1823.1823-.4717.2003-.6751.0421zm2.5655 6.36001c.2993.2993.2993.7846 0 1.0839l-1.626 1.626c-1.49996 1.5-3.77837 1.7472-5.53493.7416-.21074-.1207-.47967-.0999-.65137.0718l-1.84943 1.8494c-.29933.2994-.78464.2994-1.08397 0-.29933-.2993-.29933-.7846 0-1.0839l1.83711-1.8371c.17367-.1737.19273-.4464.06788-.6579-1.04109-1.7635-.80411-4.0727.71095-5.5877l.9033-.9033c.29933-.2994.78464-.2994 1.08397 0 .29933.2993.29933.7846 0 1.0839l-.90331.9034c-1.19731 1.1973-1.19731 3.1385 0 4.3358 1.19732 1.1973 3.13856 1.1973 4.3359 0l1.6259-1.6259c.2994-.2994.7847-.2994 1.084 0z" fill="#000" fill-rule="evenodd"/></svg>

<svg width="24" height="24" viewBox="0 0 24 24" fill="none" xmlns="http://www.w3.org/2000/svg">
<g id="Feature / Disconnect">
<path id="Union" fill-rule="evenodd" clip-rule="evenodd" d="M2.23291 3.29594C2.4928 2.9618 2.97436 2.9016 3.3085 3.16149L8.3723 7.10001C8.57572 7.25822 8.86512 7.2402 9.04734 7.05798L10.2771 5.8282C11.79 4.31537 14.0946 4.07686 15.857 5.11268C16.0734 5.23987 16.3522 5.22047 16.5297 5.04298L17.6127 3.96001C17.912 3.66068 18.3973 3.66068 18.6966 3.96001C18.996 4.25934 18.996 4.74465 18.6966 5.04398L17.6011 6.13952C17.4256 6.31499 17.4045 6.5898 17.5273 6.80541C18.5273 8.56084 18.2786 10.8344 16.7809 12.332L16.4545 12.6585C16.2371 12.8758 16.2595 13.2345 16.5021 13.4232L21.7041 17.4691C22.0382 17.729 22.0984 18.2106 21.8385 18.5447C21.5786 18.8789 21.0971 18.9391 20.7629 18.6792L2.36735 4.37154C2.03321 4.11165 1.97301 3.63009 2.23291 3.29594ZM10.4047 8.68079C10.1621 8.49209 10.1398 8.13346 10.3571 7.91612L11.3611 6.91217C12.5584 5.71485 14.4996 5.71485 15.697 6.91217C16.8943 8.10949 16.8943 10.0507 15.697 11.248L15.1447 11.8003C14.9624 11.9826 14.673 12.0006 14.4696 11.8424L10.4047 8.68079ZM12.9702 15.0408C13.2695 15.3401 13.2695 15.8254 12.9702 16.1247L11.3442 17.7507C9.84424 19.2507 7.56583 19.4979 5.80927 18.4923C5.59853 18.3716 5.3296 18.3924 5.1579 18.5641L3.30847 20.4135C3.00914 20.7129 2.52383 20.7129 2.2245 20.4135C1.92517 20.1142 1.92517 19.6289 2.2245 19.3296L4.06161 17.4925C4.23528 17.3188 4.25434 17.0461 4.12949 16.8346C3.0884 15.0711 3.32538 12.7619 4.84044 11.2469L5.74374 10.3436C6.04307 10.0442 6.52838 10.0442 6.82771 10.3436C7.12704 10.6429 7.12704 11.1282 6.82771 11.4275L5.9244 12.3309C4.72709 13.5282 4.72709 15.4694 5.9244 16.6667C7.12172 17.864 9.06296 17.864 10.2603 16.6667L11.8862 15.0408C12.1856 14.7414 12.6709 14.7414 12.9702 15.0408Z" fill="black"/>
</g>
</svg>
